X:1
T:Title
%%score ( 1 2 ) 3
L:1/8
Q:1/4=116
M:4/4
K:C
V:1 treble nm="Violins, Violin I" snm="Vlns."
V:2 treble 
V:3 treble nm="Violins, Violin II" snm="Vlns."
V:1
 F4 A4 | d4 B4 | c2 A3/2 z/4 c/4 _BABG | [A,F]4 [G,E]2 z2 | z8 | F4 G4 | E2 F2 D2 _B,2 | %7
w: John~Henry~HOPKINS1820\-1891arr.~M.A.~Caux *|||||||
 z B,C.C z ^C=C.C | F2 z2 z cfa | a g2 (f f) e2 g/ z/4 a/4 | gf f2 z fac'- | %11
w: ||||
 c' _b2 a- a g2 (3:2:2bc'/ | _ba a2 z cfg | a3- a/>a/ gfga | f2 [df]4 [ce]2 | ^cdef ^gafd | %16
w: |||||
 [Ec]4 [DB]2 z2 | z .[CE].[CE].[CE] [CE]2 z2 | .D.C.B,.A, .G,2 B,2 | .C2 g2 ^f/g/a/g/ =f/e/d/c/ | %20
w: ||||
 B/d/c/e/ d/f/e/g/ f/e/d/c/ .BG/F/ | .E2 c2- cBcd | .B2 d2- d^cde | .c2 e2 _e2 d2 | ce.e.e e_eed | %25
w: |||||
 .c2 e2 f2 g2 | a3 e gfed | c4 dcde | %28
w: |||
 (3c/ z/ e/ (3z/ g/ z/ (3g/ z/ g/ (3z/ g/ z/ (3g/ z/ a/ (3z/ g/ z/ (3f/ z/ e/ (3z/ d/ z/ | %29
w: |
 (3e/ z/ c/ (3z/ d/ z/ (3e/ z/ e/ (3z/ e/ z/ (3e/ z/ f/ (3z/ e/ z/ (3d/ z/ c/ (3z/ B/ z/ | %30
w: |
 d4 c2 z2 |[Q:1/4=120] F4 A4 | d4 B4 | c2 z z/ z/4 c/4 ._B2 BG | [A,F]4 [G,E]2 z2 | z8 | F4 G4 | %37
w: |||||||
 E2 F2 D2 _B,2 | z B,C.C z ^C=C.C | F2 z2 z cfa- | a g2 f- f e2 g/ z/4 a/4 | gf f2 z fac'- | %42
w: |||||
 c' _b2 a- a g2 (3:2:2bc'/ | _ba a2 z cfg | a3- a/>a/ gfga | f2 [df]4 [ce]2 | ^cdef ^gafd | %47
w: |||||
 [Ec]4 [DB]2 z2 | z .[CE].[CE].[CE] [CE]2 z2 | .D.C.B,.A, .G,2 B,2 | .C2 g2 ^f/g/a/g/ =f/e/d/c/ | %51
w: ||||
 B/d/c/e/ d/f/e/g/ f/e/d/c/ B/.A/G/F/ | .E2 c2- cBcd | .B2 d2- d^cde | .c2 e2 _e2 d2 | %55
w: ||||
 ce.e.e e_eed | .c2 e2 f2 g2 | a3 e gfed | c4 dcde | %59
w: ||||
 (3c/ z/ e/ (3z/ g/ z/ (3g/ z/ g/ (3z/ g/ z/ (3g/ z/ a/ (3z/ g/ z/ (3f/ z/ e/ (3z/ d/ z/ | %60
w: |
 (3e/ z/ c/ (3z/ d/ z/ (3e/ z/ e/ (3z/ e/ z/ (3e/ z/ f/ (3z/ e/ z/ (3d/ z/ c/ (3z/ B/ z/ | %61
w: |
 d4 c2 z2 |!mp! c4 _e4 | ^g4 z4 | d4 f4 | _b4 z4 | _e3 f/g/ .^g2 .g2 | ^g4 =g2 z2 | %68
w: |||||||
 f3 g/^g/ ._b2 .b2 | _b4 .^g2 .g2 | ^g4 .=g2 .f2 | _e4 z4 | _e4 .d2 .c2 | _B4 z4 | ^cdef ^gafd | %75
w: |||||||
 [Ec]4 [DB]4 | z4 z4 |] %77
w: ||
V:2
 x8 | x8 | x8 | x8 | x8 | x8 | x8 | x8 | x8 | x8 | x8 | x8 | x8 | x8 | x8 | x8 | x8 | x8 | x8 | %19
 x8 | x8 | x8 | x8 | x8 | x8 | x8 | x8 | x8 | x8 | x8 | x8 | x8 | x8 | x5 A3 | x8 | x8 | x8 | x8 | %38
 x8 | x8 | x8 | x8 | x8 | x8 | x8 | x8 | x8 | x8 | x8 | x8 | x8 | x8 | x8 | x8 | x8 | x8 | x8 | %57
 x8 | x8 | x8 | x8 | x8 | x8 | x8 | x8 | x8 | x8 | x8 | x8 | x8 | x8 | x8 | x8 | x8 | x8 | x8 | %76
 x8 |] %77
V:3
 z8 | F4 G4 | E2 F2 D2 _B,2 | C6 z2 | F4 A4 | d4 B4 | c2 A3/2 z/4 c/4 _BABG | [A,F]4 [G,E]4 | %8
 .[A,F].[FA].[FA].[FA] [FA]2 z2 | ._B2 .A2 .G2 .B2 | z .[FA].[FA].[FA] [FA]2 z2 | %11
 .d2 .c2 ._B2 .G2 | z .[FA].[FA].[FA] [FA]2 z2 | c4 ^c4 | .d2 .D2 .B,2 .C2 | F2 z2 z2 .F2 | %16
 .G2 .G,2 .GGce | g4 ^f/g/a/g/ =f/e/d/c/ | B/d/c/e/ d/f/e/g/ f/e/d/c/ B/A/G/F/ | %19
 .E.[CE].[CE].[CE] [CE]2 z2 | .D.C.B,.A, .G,2 B,2 | .C2 E2- EDEF | .[G,D]2 F2- FEFG | %23
 .[G,E]2 G2 ^F2 =F2 | EG.G.G G^FF=F | Ec.c.c c_BAG | FAc^c edAF | %27
 .[G,E].[G,E].[G,E].[G,E] .[G,F].[G,F].[G,F].[G,F] | %28
 (3E/ z/ c/ (3z/ e/ z/ (3e/ z/ e/ (3z/ e/ z/ (3e/ z/ f/ (3z/ e/ z/ (3d/ z/ c/ (3z/ B/ z/ | %29
 (3c/ z/ E/ (3z/ G/ z/ (3c/ z/ G/ (3z/ G/ z/ (3G/ z/ A/ (3z/ G/ z/ (3F/ z/ E/ (3z/ D/ z/ | %30
 [G,F]4 [G,E]2 z2 | z8 | F4 G4 | E2 F2 D2 _B,2 | C6 z2 | F4 A4 | d4 B4 | c2 A3/2 z/4 c/4 _BABG | %38
 [A,F]4 [G,E]4 | .[A,F].[FA].[FA].[FA] [FA]2 z2 | ._B2 .A2 .G2 .B2 | z .[FA].[FA].[FA] [FA]2 z2 | %42
 .d2 .c2 ._B2 .G2 | z .[FA].[FA].[FA] [FA]2 z2 | c4 ^c4 | .d2 .D2 .B,2 .C2 | F2 z2 z2 .F2 | %47
 .G2 .G,2 .GGce | g4 ^f/g/a/g/ =f/e/d/c/ | B/d/c/e/ d/f/e/g/ f/e/d/c/ B/A/G/F/ | %50
 .E.[CE].[CE].[CE] [CE]2 z2 | .D.C.B,.A, .G,2 B,2 | .C2 E2- EDEF | .[G,D]2 F2- FEFG | %54
 .[G,E]2 G2 ^F2 =F2 | EG.G.G G^FF=F | Ec.c.c c_BAG | FAc^c edAF | %58
 .[G,E].[G,E].[G,E].[G,E] .[G,F].[G,F].[G,F].[G,F] | %59
 (3E/ z/ c/ (3z/ e/ z/ (3e/ z/ e/ (3z/ e/ z/ (3e/ z/ f/ (3z/ e/ z/ (3d/ z/ c/ (3z/ B/ z/ | %60
 (3c/ z/ E/ (3z/ G/ z/ (3c/ z/ G/ (3z/ G/ z/ (3G/ z/ A/ (3z/ G/ z/ (3F/ z/ E/ (3z/ D/ z/ | %61
 [G,F]4 [G,E]2 z2 | z8 |!mp! F4 ^G4 | _B4 z4 | G4 _B4 | c4 z4 | _B3 c/d/ ._e2 .e2 | _e4 d2 z2 | %69
 c3 d/e/ f_edc | B8 | c4 .^G2 .=G2 | ^F8 | G4 .E2 .D2 | ^CDEF ^GAFD | C4 B,4 | z4 z2 z2 |] %77

